icons/qodana-dark.svg

<svg width="256" height="256" viewBox="0 0 256 256" fill="none" xmlns="http://www.w3.org/2000/svg">
    <path d="M196 0H60C26.8629 0 0 26.8629 0 60V196C0 229.137 26.8629 256 60 256H196C229.137 256 256 229.137 256 196V60C256 26.8629 229.137 0 196 0Z" fill="#282828"/>
    <g clip-path="url(#clip0_28_115)">
        <path d="M159.969 115.983L70.2673 134.786C67.9257 135.147 65.6102 135.662 63.3359 136.326C56.2096 138.434 49.9329 142.742 45.4044 148.634C18.6233 183.422 47.3515 228.89 88.4169 219.837L186.822 205.582C197.204 203.267 206.283 197.016 212.15 188.145C237.522 150.262 204.667 102.875 159.969 115.983Z" fill="url(#paint0_linear_28_115)"/>
        <path d="M110.664 46.843C99.6059 36.6711 83.36 31.9484 65.1233 37.2814C57.5488 39.5226 50.8762 44.0999 46.0583 50.3595C27.7344 74.2344 33.8666 102.745 52.2486 117.465L150.146 199.203C155.506 202.7 161.524 205.065 167.831 206.152C174.138 207.239 180.601 207.025 186.823 205.524C197.204 203.209 206.283 196.958 212.15 188.087C227.263 165.607 221.727 139.625 205.321 125.094L110.664 46.843Z" fill="url(#paint1_linear_28_115)"/>
        <path d="M77.6348 35.218C73.4057 35.4843 69.2141 36.1756 65.1234 37.2814C57.5489 39.5226 50.8763 44.0999 46.0584 50.3595C17.5626 87.3125 48.0782 135.702 91.7882 126.067L209.099 81.8197C212.502 81.0663 215.48 79.0249 217.411 76.1234C224.677 65.1669 217.251 51.8127 205.321 51.74L82.5028 35C80.759 35 79.1315 35.1017 77.6348 35.218Z" fill="url(#paint2_linear_28_115)"/>
        <path d="M69.875 69.875H186.125V186.125H69.875V69.875Z" fill="black"/>
        <path d="M84.4062 164.328H128V171.594H84.4062V164.328ZM122.188 129.177L117.392 124.818C113.535 127.278 109.049 128.57 104.474 128.538C91.0616 128.61 81.5 118.613 81.5 106.203C81.5 93.837 91.2505 83.7087 104.75 83.7087C118.25 83.7087 127.797 93.7062 127.797 106.072V106.203C127.782 110.654 126.441 115 123.946 118.685L128.421 122.478L122.188 129.177ZM110.315 118.613L103.297 112.582L109.385 105.753L116.52 112.219C117.305 110.312 117.691 108.265 117.654 106.203C117.714 104.433 117.418 102.668 116.783 101.014C116.149 99.3606 115.188 97.8512 113.959 96.5758C112.729 95.3004 111.256 94.285 109.627 93.5898C107.998 92.8947 106.245 92.534 104.474 92.5292C96.7723 92.5292 91.3958 98.6178 91.3958 106.072V106.203C91.3354 107.972 91.631 109.734 92.265 111.386C92.899 113.038 93.8585 114.546 95.0865 115.82C96.3145 117.094 97.7859 118.109 99.4135 118.803C101.041 119.497 102.792 119.858 104.561 119.862C106.55 119.893 108.519 119.465 110.315 118.613ZM135.077 84.4062H151.468C165.127 84.4062 174.573 93.7934 174.573 106.029V106.203C174.573 118.438 165.127 128 151.468 128H135.077V84.4062ZM144.638 93.125V119.281H151.468C159.286 119.281 164.546 113.992 164.546 106.29V106.203C164.629 104.464 164.348 102.726 163.72 101.102C163.092 99.4775 162.131 98.0024 160.9 96.771C159.669 95.5397 158.194 94.5793 156.569 93.9514C154.945 93.3235 153.207 93.042 151.468 93.125H144.638Z" fill="white"/>
    </g>
    <defs>
        <linearGradient id="paint0_linear_28_115" x1="31.2073" y1="181.054" x2="183.001" y2="159.228" gradientUnits="userSpaceOnUse">
            <stop offset="0.18" stop-color="#FC801D"/>
            <stop offset="0.63" stop-color="#FF318C"/>
        </linearGradient>
        <linearGradient id="paint1_linear_28_115" x1="9.06171" y1="32.7186" x2="224.938" y2="193.158" gradientUnits="userSpaceOnUse">
            <stop stop-color="#FF318C"/>
            <stop offset="0.4" stop-color="#B74AF7"/>
            <stop offset="0.87" stop-color="#FF318C"/>
        </linearGradient>
        <linearGradient id="paint2_linear_28_115" x1="-16.0191" y1="103.805" x2="223.383" y2="47.6567" gradientUnits="userSpaceOnUse">
            <stop stop-color="#FF318C"/>
            <stop offset="0.2" stop-color="#D73BAB"/>
            <stop offset="0.51" stop-color="#9D4AD8"/>
            <stop offset="0.75" stop-color="#7953F4"/>
            <stop offset="0.87" stop-color="#6B57FF"/>
        </linearGradient>
        <clipPath id="clip0_28_115">
            <rect width="186" height="186" fill="white" transform="translate(35 35)"/>
        </clipPath>
    </defs>
</svg>

<svg xmlns="http://www.w3.org/2000/svg" width="256" height="256" fill="none"><path fill="#282828" d="M196 0H60C26.863 0 0 26.863 0 60v136c0 33.137 26.863 60 60 60h136c33.137 0 60-26.863 60-60V60c0-33.137-26.863-60-60-60"/><g clip-path="url(#clip0_28_115)"><path fill="url(#paint0_linear_28_115)" d="m159.969 115.983-89.702 18.803a54 54 0 0 0-6.931 1.54 35.2 35.2 0 0 0-17.932 12.308c-26.78 34.788 1.947 80.256 43.013 71.203l98.405-14.255a41.1 41.1 0 0 0 25.328-17.437c25.372-37.883-7.483-85.27-52.181-72.162"/><path fill="url(#paint1_linear_28_115)" d="M110.664 46.843c-11.058-10.172-27.304-14.895-45.54-9.562A37.48 37.48 0 0 0 46.057 50.36c-18.324 23.875-12.191 52.386 6.19 67.106l97.898 81.738a46.96 46.96 0 0 0 36.677 6.321 41.1 41.1 0 0 0 25.327-17.437c15.113-22.48 9.577-48.462-6.829-62.993z"/><path fill="url(#paint2_linear_28_115)" d="M77.635 35.218a63.2 63.2 0 0 0-12.512 2.063A37.48 37.48 0 0 0 46.058 50.36c-28.495 36.954 2.02 85.343 45.73 75.708L209.1 81.82a13.5 13.5 0 0 0 8.312-5.697c7.266-10.956-.16-24.31-12.09-24.383L82.503 35c-1.744 0-3.371.102-4.868.218"/><path fill="#000" d="M69.875 69.875h116.25v116.25H69.875z"/><path fill="#fff" d="M84.406 164.328H128v7.266H84.406zm37.782-35.151-4.796-4.359a23.7 23.7 0 0 1-12.918 3.72c-13.412.072-22.974-9.925-22.974-22.335 0-12.366 9.75-22.494 23.25-22.494s23.047 9.997 23.047 22.363v.131a22.4 22.4 0 0 1-3.851 12.482l4.475 3.793zm-11.873-10.564-7.018-6.031 6.088-6.829 7.135 6.466a15.1 15.1 0 0 0 1.134-6.016 13.23 13.23 0 0 0-8.027-12.613 13.2 13.2 0 0 0-5.153-1.06c-7.702 0-13.078 6.088-13.078 13.542v.131a13.206 13.206 0 0 0 13.165 13.659 12.96 12.96 0 0 0 5.754-1.249m24.762-34.207h16.391c13.659 0 23.105 9.387 23.105 21.623v.174c0 12.235-9.446 21.797-23.105 21.797h-16.391zm9.561 8.719v26.156h6.83c7.818 0 13.078-5.289 13.078-12.991v-.087a12.49 12.49 0 0 0-7.977-12.252 12.5 12.5 0 0 0-5.101-.826z"/></g><defs><linearGradient id="paint0_linear_28_115" x1="31.207" x2="183.001" y1="181.054" y2="159.228" gradientUnits="userSpaceOnUse"><stop offset=".18" stop-color="#FC801D"/><stop offset=".63" stop-color="#FF318C"/></linearGradient><linearGradient id="paint1_linear_28_115" x1="9.062" x2="224.938" y1="32.719" y2="193.158" gradientUnits="userSpaceOnUse"><stop stop-color="#FF318C"/><stop offset=".4" stop-color="#B74AF7"/><stop offset=".87" stop-color="#FF318C"/></linearGradient><linearGradient id="paint2_linear_28_115" x1="-16.019" x2="223.383" y1="103.805" y2="47.657" gradientUnits="userSpaceOnUse"><stop stop-color="#FF318C"/><stop offset=".2" stop-color="#D73BAB"/><stop offset=".51" stop-color="#9D4AD8"/><stop offset=".75" stop-color="#7953F4"/><stop offset=".87" stop-color="#6B57FF"/></linearGradient><clipPath id="clip0_28_115"><path fill="#fff" d="M35 35h186v186H35z"/></clipPath></defs></svg>
